X: 3
T: Innes Russell of Perth
M: 4/4
L: 1/8
R: strathspey
K: G Major
|: F>A |
G>BD>G B,2 G,>G | D>FG>A (3BcB G>B |
[1 A2 E>A c>BA>G | F<D (3FGA c2 :|
[2 c>Af>e d<g D2 | (3FGA (3cBA G2 ||
|: (3ABc |
d>G (3Bcd g>de>g | B<GB<d g>fe<d | c<A (3ABc a>gf>e | c<Aa>g f<d (3ABc |
B<G (3DGB g>fe>g | B<G (3Bcd g>dB<G | c<A (3gfe d<g D2 | F<d (3cBA G2 ||
